src/assets/violet-logo.svg

<svg fill="none" height="253" viewBox="0 0 253 253" width="253" xmlns="http://www.w3.org/2000/svg"><circle cx="126.5" cy="126.5" fill="#a524ff" r="126.5"/><g fill="#fff"><path d="m185.639 169.573v11.378h-14.238c-9.956-.007-19.667-3.083-27.812-8.809-8.144-5.725-14.326-13.822-17.702-23.188-3.379 9.363-9.562 17.458-17.706 23.181s-17.8542 8.797-27.8082 8.804h-14.238v-11.366h14.2294c9.3173.001 18.2916-3.515 25.1278-9.845 6.836-6.331 11.03-15.009 11.743-24.299h17.286c.713 9.29 4.907 17.968 11.743 24.299 6.837 6.33 15.811 9.846 25.128 9.845z"/><path d="m197 132.582c.002 1.733-.171 3.462-.516 5.16-1.224 5.912-4.497 11.202-9.241 14.936-4.744 3.733-10.655 5.67-16.689 5.469s-11.803-2.527-16.289-6.569c-4.485-4.041-7.398-9.537-8.225-15.517-.714-5.13.153-10.356 2.484-14.981.645-1.293 1.402-2.527 2.262-3.688.081-.106.171-.217.26-.341 3.991-5.382 6.14-11.908 6.129-18.6084 0-8.2983-3.296-16.2567-9.164-22.1244-5.868-5.8678-13.826-9.1643-22.124-9.1643-8.299 0-16.257 3.2965-22.125 9.1643-5.8675 5.8677-9.164 13.8261-9.164 22.1244-.0167 6.7094 2.1328 13.2444 6.129 18.6344.089.123.179.234.26.341.86 1.161 1.617 2.395 2.262 3.688 1.642 3.258 2.569 6.83 2.718 10.476s-.483 7.282-1.853 10.664c-1.371 3.382-3.448 6.432-6.0933 8.945-2.6451 2.514-5.7969 4.433-9.2441 5.63-3.4473 1.196-7.1105 1.642-10.7441 1.308-3.6336-.335-7.1538-1.442-10.3247-3.248s-5.9192-4.268-8.0609-7.223c-2.1417-2.954-3.6273-6.332-4.3572-9.907-.8443-4.156-.6466-8.457.5755-12.518s3.4306-7.756 6.4283-10.756l3.3291 3.334 4.6948 4.716c-1.9244 1.925-3.2557 4.362-3.8359 7.022-.5801 2.66-.3848 5.43.5629 7.982.9476 2.552 2.6078 4.778 4.7833 6.414s4.7749 2.614 7.4894 2.816c2.7146.203 5.4303-.378 7.8246-1.673s4.3666-3.25 5.6827-5.633c1.316-2.383 1.9205-5.093 1.7416-7.81-.1789-2.716-1.1336-5.324-2.7508-7.513-.0512-.06-.0896-.116-.1323-.171-3.6017-4.819-6.1401-10.346-7.4476-16.218-.0384-.158-.0683-.325-.1067-.487-.6087-2.897-.9176-5.849-.9219-8.8091 0-.9162.0299-1.8267.0896-2.7316.2366-3.825.9933-7.5999 2.2493-11.2205 2.9025-8.3863 8.3469-15.6592 15.5754-20.8068 7.229-5.1476 15.883-7.9138 24.757-7.9138s17.528 2.7662 24.757 7.9138 12.673 12.4205 15.576 20.8068c1.259 3.6272 2.017 7.4095 2.253 11.2419.06.9048.09 1.8153.09 2.7315-.001 2.9538-.306 5.8998-.909 8.7918-.039.162-.069.329-.107.487-1.307 5.872-3.846 11.4-7.448 16.218-.042.056-.081.111-.132.171-1.619 2.19-2.575 4.799-2.754 7.516-.18 2.718.424 5.43 1.74 7.814 1.317 2.384 3.29 4.34 5.685 5.636s5.112 1.877 7.828 1.675c2.716-.203 5.316-1.181 7.493-2.818 2.176-1.638 3.837-3.865 4.784-6.418.948-2.554 1.143-5.325.562-7.986-.582-2.66-1.914-5.098-3.84-7.024l4.716-4.716 3.329-3.333c2.381 2.374 4.269 5.196 5.556 8.302 1.286 3.106 1.947 6.436 1.943 9.798z"/><path d="m100.44 198.006c.707-6.253 3.693-12.027 8.386-16.22 4.694-4.193 10.767-6.51 17.06-6.51s12.367 2.317 17.06 6.51 7.679 9.967 8.386 16.22h-11.524c-.658-3.21-2.405-6.095-4.945-8.167-2.539-2.071-5.716-3.203-8.994-3.203-3.277 0-6.455 1.132-8.994 3.203-2.54 2.072-4.287 4.957-4.945 8.167z"/><path d="m120.198 118.357c1.57 0 2.842-1.272 2.842-2.842s-1.272-2.843-2.842-2.843-2.843 1.273-2.843 2.843 1.273 2.842 2.843 2.842z"/><path d="m131.574 118.357c1.57 0 2.843-1.272 2.843-2.842s-1.273-2.843-2.843-2.843c-1.569 0-2.842 1.273-2.842 2.843s1.273 2.842 2.842 2.842z"/></g></svg>

<svg width="253" height="253" viewBox="0 0 253 253" fill="none" xmlns="http://www.w3.org/2000/svg">
<circle cx="126.5" cy="126.5" r="126.5" fill="#A524FF"/>
<path d="M185.639 169.573V180.951H171.401C161.445 180.944 151.734 177.868 143.589 172.142C135.445 166.417 129.263 158.32 125.887 148.954C122.508 158.317 116.325 166.412 108.181 172.135C100.037 177.858 90.3268 180.932 80.3728 180.939H66.1348V169.573H80.3642C89.6815 169.574 98.6558 166.058 105.492 159.728C112.328 153.397 116.522 144.719 117.235 135.429H134.521C135.234 144.719 139.428 153.397 146.264 159.728C153.101 166.058 162.075 169.574 171.392 169.573H185.639Z" fill="white"/>
<path d="M197 132.582C197.002 134.315 196.829 136.044 196.484 137.742C195.26 143.654 191.987 148.944 187.243 152.678C182.499 156.411 176.588 158.348 170.554 158.147C164.52 157.946 158.751 155.62 154.265 151.578C149.78 147.537 146.867 142.041 146.04 136.061C145.326 130.931 146.193 125.705 148.524 121.08C149.169 119.787 149.926 118.553 150.786 117.392C150.867 117.286 150.957 117.175 151.046 117.051C155.037 111.669 157.186 105.143 157.175 98.4426C157.175 90.1443 153.879 82.1859 148.011 76.3182C142.143 70.4504 134.185 67.1539 125.887 67.1539C117.588 67.1539 109.63 70.4504 103.762 76.3182C97.8945 82.1859 94.598 90.1443 94.598 98.4426C94.5813 105.152 96.7308 111.687 100.727 117.077C100.816 117.2 100.906 117.311 100.987 117.418C101.847 118.579 102.604 119.813 103.249 121.106C104.891 124.364 105.818 127.936 105.967 131.582C106.116 135.228 105.484 138.864 104.114 142.246C102.743 145.628 100.666 148.678 98.0207 151.191C95.3756 153.705 92.2238 155.624 88.7766 156.821C85.3293 158.017 81.6661 158.463 78.0325 158.129C74.3989 157.794 70.8787 156.687 67.7078 154.881C64.5369 153.075 61.7886 150.613 59.6469 147.658C57.5052 144.704 56.0196 141.326 55.2897 137.751C54.4454 133.595 54.6431 129.294 55.8652 125.233C57.0873 121.172 59.2958 117.477 62.2935 114.477L65.6226 117.811L70.3174 122.527C68.393 124.452 67.0617 126.889 66.4815 129.549C65.9014 132.209 66.0967 134.979 67.0444 137.531C67.992 140.083 69.6522 142.309 71.8277 143.945C74.0032 145.581 76.6026 146.559 79.3171 146.761C82.0317 146.964 84.7474 146.383 87.1417 145.088C89.536 143.793 91.5083 141.838 92.8244 139.455C94.1404 137.072 94.7449 134.362 94.566 131.645C94.3871 128.929 93.4324 126.321 91.8152 124.132C91.764 124.072 91.7256 124.016 91.6829 123.961C88.0812 119.142 85.5428 113.615 84.2353 107.743C84.1969 107.585 84.167 107.418 84.1286 107.256C83.5199 104.359 83.211 101.407 83.2067 98.4469C83.2067 97.5307 83.2366 96.6202 83.2963 95.7153C83.5329 91.8903 84.2896 88.1154 85.5456 84.4948C88.4481 76.1085 93.8925 68.8356 101.121 63.688C108.35 58.5404 117.004 55.7742 125.878 55.7742C134.752 55.7742 143.406 58.5404 150.635 63.688C157.864 68.8356 163.308 76.1085 166.211 84.4948C167.47 88.122 168.228 91.9043 168.464 95.7367C168.524 96.6415 168.554 97.552 168.554 98.4682C168.553 101.422 168.248 104.368 167.645 107.26C167.606 107.422 167.576 107.589 167.538 107.747C166.231 113.619 163.692 119.147 160.09 123.965C160.048 124.021 160.009 124.076 159.958 124.136C158.339 126.326 157.383 128.935 157.204 131.652C157.024 134.37 157.628 137.082 158.944 139.466C160.261 141.85 162.234 143.806 164.629 145.102C167.024 146.398 169.741 146.979 172.457 146.777C175.173 146.574 177.773 145.596 179.95 143.959C182.126 142.321 183.787 140.094 184.734 137.541C185.682 134.987 185.877 132.216 185.296 129.555C184.714 126.895 183.382 124.457 181.456 122.531L186.172 117.815L189.501 114.482C191.882 116.856 193.77 119.678 195.057 122.784C196.343 125.89 197.004 129.22 197 132.582Z" fill="white"/>
<path d="M100.44 198.006C101.147 191.753 104.133 185.979 108.826 181.786C113.52 177.593 119.593 175.276 125.886 175.276C132.179 175.276 138.253 177.593 142.946 181.786C147.639 185.979 150.625 191.753 151.332 198.006H139.808C139.15 194.796 137.403 191.911 134.863 189.839C132.324 187.768 129.147 186.636 125.869 186.636C122.592 186.636 119.414 187.768 116.875 189.839C114.335 191.911 112.588 194.796 111.93 198.006H100.44Z" fill="white"/>
<path d="M120.198 118.357C121.768 118.357 123.04 117.085 123.04 115.515C123.04 113.945 121.768 112.672 120.198 112.672C118.628 112.672 117.355 113.945 117.355 115.515C117.355 117.085 118.628 118.357 120.198 118.357Z" fill="white"/>
<path d="M131.574 118.357C133.144 118.357 134.417 117.085 134.417 115.515C134.417 113.945 133.144 112.672 131.574 112.672C130.005 112.672 128.732 113.945 128.732 115.515C128.732 117.085 130.005 118.357 131.574 118.357Z" fill="white"/>
</svg>
